X: 2
T: BLACKBERRY BLOSSOM
R: reel
Z: 2006 John Chambers <jc:trillian.mit.edu>
B: "Rinnci na h-\'Eireann" Elizabeth Burchenal, ed. G.Schirmer (1925) p.54
M: 2/4
L: 1/16
Q: 1/4=112
K: D
(ge) \
| "G"dBAc (BA)GA | BcB^A B2(ge) | dB=Ac (BA)GB | "D"(Aa2).b .a2(ge) |
  "G"dBAc (BA)GA | BcB^A B2(ge) | dB=AB (BA)GB | "D"(Aa2).b .a2 :|
|: z2 \
| "Em"(gf).g.a gfe2 | (gf).g.a bge2 | (gf).g.a gfe2 | "Am"(ea2).b a4 |
  "Em"(gf).g.a gfe2 | (gf).g.a bge2 | (ga)bg "B7"af"Em"ge | "Am"(ea2).b .a2 :|

%%sep 2 1 500

